X:51
T:Borsót vittem a malomba
O: Karád
Q:"Tempo guisto"
M:2/4
L:1/4
K:Bb
G/A/B/c/ | B/G/G/F/ | 
B/A/B/c/ | B/G/F/E/ | 
C D | E/E/ F | 
E/C/B,/B,/ | C/C/ C | 

